X:159
M:3/4
L:1/8
Q:1/4=140
K:G
(3Adf e2 d2| F<A [G3/2B3/2][F/A/] [F2A2]|d>B AF [C2E2]|(F>A) B>A d2|
(3Adf e2 d2|f>d e>c d>A|(Bc/)d/ AF [C2E2]|f<d e>c d>B|
(F<A) ([G3/2B3/2][F/A/]) [F2A2]|(3A,DF [C2E2] [D2F2]||

